markets/XMR.svg

<svg width="42" height="42" viewBox="0 0 42 42" fill="none" xmlns="http://www.w3.org/2000/svg">
<g clip-path="url(#clip0_7277_55554)">
<path d="M21 42C32.598 42 42 32.598 42 21C42 9.40202 32.598 0 21 0C9.40202 0 0 9.40202 0 21C0 32.598 9.40202 42 21 42Z" fill="#FF6600"/>
<path d="M20.9603 6.87109C28.8156 6.87109 35.1681 13.2236 35.1681 21.0776C35.1628 22.6083 34.9156 24.1285 34.4358 25.5821H30.2016V13.6462L20.9616 22.8862L11.7216 13.6462V25.5821H7.48619C7.00675 24.1285 6.76002 22.6082 6.75513 21.0776C6.75513 13.2236 13.1076 6.87109 20.9616 6.87109H20.9603ZM18.8446 24.9639L20.9997 27.0836L23.1168 24.9652L27.1212 20.9227V28.4302H33.0891C31.8233 30.5121 30.0424 32.2328 27.9182 33.4264C25.794 34.62 23.3982 35.2462 20.9616 35.2447C15.8403 35.2447 11.3358 32.5121 8.83413 28.4302H14.8008V20.9227L18.8433 24.9652L18.8446 24.9639Z" fill="white"/>
</g>
<defs>
<clipPath id="clip0_7277_55554">
<rect width="42" height="42" fill="white"/>
</clipPath>
</defs>
</svg>

<svg xmlns="http://www.w3.org/2000/svg" width="42" height="42" fill="none"><g clip-path="url(#a)"><path fill="#F60" d="M21 42c11.598 0 21-9.402 21-21S32.598 0 21 0 0 9.402 0 21s9.402 21 21 21Z"/><path fill="#fff" d="M20.96 6.871c7.856 0 14.208 6.353 14.208 14.207a14.531 14.531 0 0 1-.732 4.504h-4.234V13.646l-9.24 9.24-9.24-9.24v11.936H7.486a14.53 14.53 0 0 1-.73-4.504c0-7.854 6.352-14.207 14.206-14.207h-.002Zm-2.115 18.093L21 27.084l2.117-2.119 4.004-4.042v7.507h5.968a14.183 14.183 0 0 1-12.127 6.815c-5.122 0-9.626-2.733-12.128-6.815h5.967v-7.507l4.042 4.042.002-.001Z"/></g><defs><clipPath id="a"><path fill="#fff" d="M0 0h42v42H0z"/></clipPath></defs></svg>
